X: 9
T: Trip to Carlisle House
%R: march, reel
B: "Twenty Four Country Dances for the Year 1781", Thomas Skillern, ed. p.5 #1
F: http://www.vwml.org/browse/browse-collections-dance-tune-books/browse-skillerns1781#
Z: 2014 John Chambers <jc:trillian.mit.edu>
M: 2/4
L: 1/16
K: A
ed |\
c2A2 A2ed | c2A2a2A2 | B2c2 dcBA | GABG E2ed |\
c2A2 A2ed | c2A2a2f2 | g2fe B2^d2 | e4 E2 :|
|: ed |\
c2e2 A2a=g | f2d2D2e2 | fedc dcBA | ^GABG E2a2 |\
g2e2e2f2 | e2c2A2E2 | F2f2 edcB | c2A2A2 :|
%%begintext align
%%   Sett all four 1st Cu. lead down one Cu. and
%% Cast up .| Sett all four 2d Couple lead up &
%% Cast down :| Cross over one Couple figure
%% thro' top :|. Hands four at bottom Right
%% and Left at top :|:
%%endtext

%%sep 1 1 500
%%sep 1 1 500
